COLOR/action 16/16/align-horizontal-left.svg

<svg viewBox="0 0 24 24" xmlns="http://www.w3.org/2000/svg"><path d="m4 4v16h1v-16zm3 0v6h13v-6zm0 10v6h6v-6z" fill="#c43ac4"/><path d="m4 13v1h16v-1z" fill="#e95420" transform="matrix(0 1 -1 0 18 0)"/><path d="m4 4v.5h1v-.5zm3 0v.5h13v-.5zm0 10v.5h6v-.5z" fill="#fff" opacity=".3"/><path d="m7 9.5v.5h13v-.5zm-3 10v.5h1v-.5zm3 0v.5h6v-.5z" opacity=".2"/></svg>

<?xml version="1.0" encoding="UTF-8" standalone="no"?>
<svg
   xmlns:dc="http://purl.org/dc/elements/1.1/"
   xmlns:cc="http://creativecommons.org/ns#"
   xmlns:rdf="http://www.w3.org/1999/02/22-rdf-syntax-ns#"
   xmlns:svg="http://www.w3.org/2000/svg"
   xmlns="http://www.w3.org/2000/svg"
   xmlns:sodipodi="http://sodipodi.sourceforge.net/DTD/sodipodi-0.dtd"
   xmlns:inkscape="http://www.inkscape.org/namespaces/inkscape"
   viewBox="0 0 24 24"
   version="1.1"
   id="svg6"
   sodipodi:docname="align-horizontal-left.svg"
   inkscape:version="0.92.4 (5da689c313, 2019-01-14)">
  <metadata
     id="metadata12">
    <rdf:RDF>
      <cc:Work
         rdf:about="">
        <dc:format>image/svg+xml</dc:format>
        <dc:type
           rdf:resource="http://purl.org/dc/dcmitype/StillImage" />
      </cc:Work>
    </rdf:RDF>
  </metadata>
  <defs
     id="defs10" />
  <sodipodi:namedview
     pagecolor="#ffffff"
     bordercolor="#666666"
     borderopacity="1"
     objecttolerance="10"
     gridtolerance="10"
     guidetolerance="10"
     inkscape:pageopacity="0"
     inkscape:pageshadow="2"
     inkscape:window-width="794"
     inkscape:window-height="480"
     id="namedview8"
     showgrid="false"
     inkscape:zoom="9.8333333"
     inkscape:cx="12"
     inkscape:cy="12"
     inkscape:window-x="0"
     inkscape:window-y="27"
     inkscape:window-maximized="0"
     inkscape:current-layer="svg6" />
  <path
     d="m4 4v16h1v-16zm3 0v6h13v-6zm0 10v6h6v-6z"
     fill="#c43ac4"
     id="path2" />
  <path
     d="m4 13v1h16v-1z"
     fill="#e95420"
     transform="matrix(0 1 -1 0 18 0)"
     id="path4" />
  <path
     d="M 4 4 L 4 4.5 L 5 4.5 L 5 4 L 4 4 z M 7 4 L 7 4.5 L 20 4.5 L 20 4 L 7 4 z M 7 14 L 7 14.5 L 13 14.5 L 13 14 L 7 14 z "
     id="path822"
     style="fill:#ffffff;fill-opacity:1;opacity:0.3" />
  <path
     d="M 7 9.5 L 7 10 L 20 10 L 20 9.5 L 7 9.5 z M 4 19.5 L 4 20 L 5 20 L 5 19.5 L 4 19.5 z M 7 19.5 L 7 20 L 13 20 L 13 19.5 L 7 19.5 z "
     id="path829"
     style="fill:#000000;fill-opacity:1;opacity:0.2" />
</svg>
